X:715
T:Reel 715
M:4/4
K:Gmaj
L:1/8
dc|BABd efge|dBGB AGAG|BdBA gabg||edef gage:||2edef g2| (3def |g2gd gdBd|gdgf edef|g2gf edeg|fadf agef|g2gf edBd|cBAB cdef|gfge edBd|egfa gedB|
